; generated by PrusaSlicer 2.6.1+win64 on 2024-01-31 at 17:55:21 UTC


;
;

;
;

;
;
; 

; external perimeters extrusion width = 0.45mm
; perimeters extrusion width = 0.45mm
; infill extrusion width = 0.45mm
; solid infill extrusion width = 0.45mm
; top infill extrusion width = 0.40mm
; first layer extrusion width = 0.50mm

M73 P0 R95
M201 X2500 Y2500 Z200 E2500 ; sets maximum accelerations, mm/sec^2
M203 X200 Y200 Z40 E100 ; sets maximum feedrates, mm / sec
M204 P2000 R1200 T2000 ; sets acceleration (P, T) and retract acceleration (R), mm/sec^2
M205 X8.00 Y8.00 Z2.00 E10.00 ; sets the jerk limits, mm/sec
M205 S0 T0 ; sets the minimum extruding and travel feed rate, mm/sec
;TYPE:Custom
M17 ; enable steppers
M862.3 P "MK4" ; printer model check
M862.1 P0.4 ; nozzle diameter check
M555 X95.1684 Y71.1684 W59.6629 H63.6629

G90 ; use absolute coordinates
M83 ; extruder relative mode

M140 S60 ; set bed temp

M104 S170 ; set extruder temp for bed leveling
M109 R170 ; wait for temp


M84 E ; turn off E motor

G28 ; home all without mesh bed level

G1 X42 Y-4 Z5 F4800

M302 S160 ; lower cold extrusion limit to 160C


G1 E-2 F2400 ; retraction


M84 E ; turn off E motor

G29 P9 X10 Y-4 W32 H4

M106 S100

G0 Z40 F10000

M190 S60 ; wait for bed temp

M107

;
; MBL
;
M84 E ; turn off E motor
G29 P1 ; invalidate mbl & probe print area
G29 P1 X0 Y0 W50 H20 C ; probe near purge place
G29 P3.2 ; interpolate mbl probes
G29 P3.13 ; extrapolate mbl outside probe area
G29 A ; activate mbl

; prepare for purge
M104 S215
G0 X0 Y-4 Z15 F4800 ; move away and ready for the purge
M109 S215

G92 E0
M569 S0 E ; set spreadcycle mode for extruder

;
; Extrude purge line
;
G92 E0 ; reset extruder position
G1 E2 F2400 ; deretraction after the initial one before nozzle cleaning
G0 E7 X15 Z0.2 F500 ; purge
G0 X25 E4 F500 ; purge
G0 X35 E4 F650 ; purge
G0 X45 E4 F800 ; purge
G0 X48 Z0.05 F8000 ; wipe, move close to the bed
G0 X51 Z0.2 F8000 ; wipe, move quickly away from the bed

G92 E0
M221 S100 ; set flow to 100%
G21 ; set units to millimeters
G90 ; use absolute coordinates
M83 ; use relative distances for extrusion
M900 K0.05 ; Filament gcode



M142 S36 ; set heatbreak target temp
M107
;LAYER_CHANGE
;Z:0.2
;HEIGHT:0.2
;BEFORE_LAYER_CHANGE
G92 E0.0
;0.2


G1 E-.8 F2100
G1 Z.2 F720
;AFTER_LAYER_CHANGE
;0.2
; printing object schwarz_cone_004_020_3_10.stl id:0 copy 0
G1 Z.4
G1 X153.893 Y105 F12000
G1 Z.2 F720
G1 E.8 F1500
M204 P600
;TYPE:Perimeter
;WIDTH:0.499999
G1 F1200
G1 X125 Y133.893 E1.55297
G1 X96.106 Y105 E1.553
G1 X125 Y76.106 E1.55302
G1 X153.851 Y104.957 E1.55071
M204 P1000
G1 X154.381 Y105 F12000
M204 P600
;TYPE:External perimeter
G1 F1200
G1 X154.381 Y105.158 E.006
G1 X125.158 Y134.381 E1.57071
G1 X124.841 Y134.381 E.01205
G1 X95.618 Y105.158 E1.57071
G1 X95.618 Y104.841 E.01205
G1 X124.841 Y75.618 E1.57071
G1 X125.158 Y75.618 E.01205
G1 X154.381 Y104.841 E1.57071
G1 X154.381 Y104.94 E.00376
M204 P1000
G1 X154.269 Y105.112 F12000
G1 E-.64 F2100
;WIPE_START
G1 F9600
G1 X154.381 Y105.158 E-.0453
G1 X153.991 Y105.548 E-.1147
;WIPE_END
G1 Z.4 F720
G1 X124.853 Y76.544 F12000
G1 Z.2 F720
G1 E.8 F1500
M204 P600
;TYPE:Solid infill
;WIDTH:0.503099
G1 F1200
G1 X153.31 Y105.001 E1.53991
G1 X152.985 Y105.326 E.01759
G1 X124.673 Y77.015 E1.53203
G1 X124.348 Y77.34 E.01759
G1 X152.659 Y105.652 E1.53203
G1 X152.334 Y105.977 E.01759
G1 X124.022 Y77.665 E1.53206
G1 X123.697 Y77.991 E.01761
G1 X152.009 Y106.302 E1.53203
G1 X151.683 Y106.628 E.01764
G1 X123.372 Y78.316 E1.53203
G1 X123.046 Y78.642 E.01764
G1 X151.358 Y106.953 E1.53203
G1 X151.033 Y107.279 E.01761
G1 X122.721 Y78.967 E1.53206
G1 X122.395 Y79.292 E.01761
G1 X150.707 Y107.604 E1.53206
G1 X150.382 Y107.929 E.01759
G1 X122.07 Y79.618 E1.53203
G1 X121.745 Y79.943 E.01759
G1 X150.056 Y108.255 E1.53203
G1 X149.731 Y108.58 E.01759
G1 X121.419 Y80.269 E1.53203
G1 X121.094 Y80.594 E.01759
G1 X149.406 Y108.906 E1.53206
G1 X149.08 Y109.231 E.01761
M73 P0 R94
G1 X120.768 Y80.919 E1.53206
G1 X120.443 Y81.245 E.01761
G1 X148.755 Y109.556 E1.53203
G1 X148.429 Y109.882 E.01764
G1 X120.118 Y81.57 E1.53203
G1 X119.792 Y81.896 E.01764
G1 X148.104 Y110.207 E1.53203
G1 X147.779 Y110.533 E.01761
G1 X119.467 Y82.221 E1.53206
G1 X119.141 Y82.546 E.01761
G1 X147.453 Y110.858 E1.53206
G1 X147.128 Y111.183 E.01759
G1 X118.816 Y82.872 E1.53203
G1 X118.491 Y83.197 E.01759
M73 P1 R94
G1 X146.802 Y111.509 E1.53203
G1 X146.477 Y111.834 E.01759
G1 X118.165 Y83.523 E1.53203
G1 X117.84 Y83.848 E.01759
G1 X146.152 Y112.16 E1.53206
G1 X145.826 Y112.485 E.01761
G1 X117.515 Y84.173 E1.53203
G1 X117.189 Y84.499 E.01764
G1 X145.501 Y112.81 E1.53203
G1 X145.175 Y113.136 E.01764
G1 X116.864 Y84.824 E1.53203
G1 X116.538 Y85.149 E.01761
G1 X144.85 Y113.461 E1.53206
G1 X144.525 Y113.787 E.01761
G1 X116.213 Y85.475 E1.53206
G1 X115.888 Y85.8 E.01759
G1 X144.199 Y114.112 E1.53203
G1 X143.874 Y114.437 E.01759
G1 X115.562 Y86.126 E1.53203
G1 X115.237 Y86.451 E.01759
G1 X143.548 Y114.763 E1.53203
G1 X143.223 Y115.088 E.01759
G1 X114.911 Y86.776 E1.53206
G1 X114.586 Y87.102 E.01761
G1 X142.898 Y115.414 E1.53206
G1 X142.572 Y115.739 E.01761
G1 X114.261 Y87.427 E1.53203
G1 X113.935 Y87.753 E.01764
G1 X142.247 Y116.064 E1.53203
G1 X141.921 Y116.39 E.01764
G1 X113.61 Y88.078 E1.53203
G1 X113.284 Y88.403 E.01761
G1 X141.596 Y116.715 E1.53206
G1 X141.271 Y117.041 E.01761
G1 X112.959 Y88.729 E1.53206
G1 X112.634 Y89.054 E.01759
G1 X140.945 Y117.366 E1.53203
G1 X140.62 Y117.691 E.01759
G1 X112.308 Y89.38 E1.53203
G1 X111.983 Y89.705 E.01759
G1 X140.294 Y118.017 E1.53203
G1 X139.969 Y118.342 E.01759
G1 X111.657 Y90.03 E1.53206
G1 X111.332 Y90.356 E.01761
M73 P1 R93
G1 X139.644 Y118.667 E1.53203
G1 X139.318 Y118.993 E.01764
G1 X111.007 Y90.681 E1.53203
G1 X110.681 Y91.007 E.01764
G1 X138.993 Y119.318 E1.53203
G1 X138.667 Y119.644 E.01764
G1 X110.356 Y91.332 E1.53203
G1 X110.03 Y91.657 E.01761
G1 X138.342 Y119.969 E1.53206
G1 X138.017 Y120.294 E.01759
G1 X109.705 Y91.983 E1.53203
G1 X109.38 Y92.308 E.01759
M73 P2 R93
G1 X137.691 Y120.62 E1.53203
G1 X137.366 Y120.945 E.01759
G1 X109.054 Y92.634 E1.53203
G1 X108.729 Y92.959 E.01759
G1 X137.04 Y121.271 E1.53203
G1 X136.715 Y121.596 E.01759
G1 X108.403 Y93.284 E1.53206
G1 X108.078 Y93.61 E.01761
G1 X136.39 Y121.921 E1.53203
G1 X136.064 Y122.247 E.01764
G1 X107.753 Y93.935 E1.53203
G1 X107.427 Y94.261 E.01764
G1 X135.739 Y122.572 E1.53203
G1 X135.414 Y122.898 E.01761
G1 X107.102 Y94.586 E1.53206
G1 X106.776 Y94.911 E.01761
G1 X135.088 Y123.223 E1.53206
G1 X134.763 Y123.548 E.01759
G1 X106.451 Y95.237 E1.53203
G1 X106.126 Y95.562 E.01759
G1 X134.437 Y123.874 E1.53203
G1 X134.112 Y124.199 E.01759
G1 X105.8 Y95.888 E1.53203
G1 X105.475 Y96.213 E.01759
G1 X133.787 Y124.525 E1.53206
G1 X133.461 Y124.85 E.01761
G1 X105.149 Y96.538 E1.53206
G1 X104.824 Y96.864 E.01761
G1 X133.136 Y125.175 E1.53203
G1 X132.81 Y125.501 E.01764
G1 X104.499 Y97.189 E1.53203
G1 X104.173 Y97.515 E.01764
G1 X132.485 Y125.826 E1.53203
G1 X132.16 Y126.152 E.01761
G1 X103.848 Y97.84 E1.53206
G1 X103.522 Y98.165 E.01761
G1 X131.834 Y126.477 E1.53206
G1 X131.509 Y126.802 E.01759
G1 X103.197 Y98.491 E1.53203
G1 X102.872 Y98.816 E.01759
G1 X131.183 Y127.128 E1.53203
G1 X130.858 Y127.453 E.01759
G1 X102.546 Y99.142 E1.53203
G1 X102.221 Y99.467 E.01759
G1 X130.533 Y127.779 E1.53206
G1 X130.207 Y128.104 E.01761
G1 X101.896 Y99.792 E1.53203
G1 X101.57 Y100.118 E.01764
M73 P2 R92
G1 X129.882 Y128.429 E1.53203
G1 X129.556 Y128.755 E.01764
G1 X101.245 Y100.443 E1.53203
G1 X100.919 Y100.768 E.01761
G1 X129.231 Y129.08 E1.53206
G1 X128.906 Y129.406 E.01761
G1 X100.594 Y101.094 E1.53206
G1 X100.269 Y101.419 E.01759
M73 P3 R92
G1 X128.58 Y129.731 E1.53203
G1 X128.255 Y130.056 E.01759
G1 X99.943 Y101.745 E1.53203
G1 X99.618 Y102.07 E.01759
G1 X127.929 Y130.382 E1.53203
G1 X127.604 Y130.707 E.01759
G1 X99.292 Y102.395 E1.53206
G1 X98.967 Y102.721 E.01761
G1 X127.279 Y131.033 E1.53206
G1 X126.953 Y131.358 E.01761
G1 X98.642 Y103.046 E1.53203
G1 X98.316 Y103.372 E.01764
G1 X126.628 Y131.683 E1.53203
G1 X126.302 Y132.009 E.01764
G1 X97.991 Y103.697 E1.53203
G1 X97.665 Y104.022 E.01761
G1 X125.977 Y132.334 E1.53206
G1 X125.652 Y132.66 E.01761
G1 X97.34 Y104.348 E1.53206
G1 X97.015 Y104.673 E.01759
G1 X125.326 Y132.985 E1.53203
G1 X125.001 Y133.31 E.01759
G1 X96.544 Y104.853 E1.53991
M204 P1000
; stop printing object schwarz_cone_004_020_3_10.stl id:0 copy 0
M106 S127.5
;LAYER_CHANGE
;Z:0.4
;HEIGHT:0.2
;BEFORE_LAYER_CHANGE
G92 E0.0
;0.4


G1 E-.64 F2100
;WIPE_START
G1 F9600
G1 X97.088 Y105.397 E-.16
;WIPE_END
G1 Z.4 F720
;AFTER_LAYER_CHANGE
;0.4
M104 S210 ; set temperature
; printing object schwarz_cone_004_020_3_10.stl id:0 copy 0
G1 Z.6
G1 X153.615 Y106.058 F12000
G1 Z.4 F720
G1 E.8 F1500
M204 P900
;TYPE:Perimeter
;WIDTH:0.449999
G1 F2700
G1 X125.849 Y133.824 E1.32914
G1 X124.15 Y133.824 E.05751
G1 X96.175 Y105.849 E1.33915
G1 X96.175 Y104.15 E.05751
G1 X124.15 Y76.175 E1.33915
G1 X125.849 Y76.175 E.05751
G1 X153.824 Y104.15 E1.33915
G1 X153.824 Y105.849 E.05751
G1 X153.658 Y106.015 E.00795
M204 P1000
G1 X153.903 Y106.346 F12000
M204 P700
;TYPE:External perimeter
G1 F1055.551

G1 X153.388 Y106.86 E.02463
G1 X126.532 Y133.717 E1.2856
G1 F1057.204
G1 X126.017 Y134.231 E.02463
G1 F1059.791
G1 X123.982 Y134.231 E.06888
G1 F1061.524
G1 X123.468 Y133.717 E.0246
G1 X96.282 Y106.531 E1.30138
G1 X95.768 Y106.017 E.0246
G1 X95.768 Y103.982 E.06888
G1 F1063.256
G1 X96.281 Y103.468 E.02458
G1 F1065.839
G1 X123.468 Y76.281 E1.30142
G1 F1063.256
G1 X123.982 Y75.768 E.02458
G1 F1061.525
G1 X126.017 Y75.768 E.06888
G1 X126.531 Y76.282 E.0246
G1 X153.717 Y103.468 E1.30138
G1 X154.231 Y103.982 E.0246
G1 F1059.791
G1 X154.231 Y106.017 E.06888
G1 F1058.355
G1 X153.945 Y106.303 E.01369

M204 P1000
G1 X153.503 Y106.327 F12000
G1 E-.64 F2100
;WIPE_START
G1 F9600
G1 X153.401 Y106.847 E-.16
;WIPE_END
G1 Z.6 F720
G1 X96.439 Y104.26 F12000
G1 Z.4 F720
G1 E.8 F1500
M204 P1500
;TYPE:Solid infill
;WIDTH:0.38292
G1 F5400
G1 X124.26 Y76.439 E1.11232
;WIDTH:0.41646
G1 X124.425 Y76.49 E.00536
;WIDTH:0.449999
G1 X124.59 Y76.541 E.00585
G1 X96.541 Y104.59 E1.34269
G1 X96.541 Y105.166 E.0195
G1 X125.166 Y76.541 E1.37026
G1 X125.719 Y76.563 E.01873
G1 X96.563 Y105.719 E1.39568
G1 X96.851 Y106.007 E.01379
G1 X126.007 Y76.851 E1.39568
G1 X126.295 Y77.139 E.01379
G1 X97.139 Y106.295 E1.39568
G1 X97.427 Y106.583 E.01379
G1 X126.583 Y77.427 E1.39568
G1 X126.87 Y77.715 E.01376
G1 X97.715 Y106.87 E1.39563
G1 X98.002 Y107.158 E.01376
G1 X127.158 Y78.002 E1.39568
G1 X127.446 Y78.29 E.01379
G1 X98.29 Y107.446 E1.39568
G1 X98.578 Y107.734 E.01379
M73 P3 R91
G1 X127.734 Y78.578 E1.39568
G1 X128.022 Y78.866 E.01379
G1 X98.866 Y108.022 E1.39568
G1 X99.154 Y108.31 E.01379
G1 X128.31 Y79.154 E1.39568
G1 X128.598 Y79.442 E.01379
G1 X99.442 Y108.598 E1.39568
G1 X99.73 Y108.885 E.01376
G1 X128.885 Y79.73 E1.39563
G1 X129.173 Y80.017 E.01376
G1 X100.017 Y109.173 E1.39568
G1 X100.305 Y109.461 E.01379
G1 X129.461 Y80.305 E1.39568
G1 X129.749 Y80.593 E.01379
G1 X100.593 Y109.749 E1.39568
G1 X100.881 Y110.037 E.01379
G1 X130.037 Y80.881 E1.39568
G1 X130.325 Y81.169 E.01379
G1 X101.169 Y110.325 E1.39568
G1 X101.457 Y110.612 E.01376
G1 X130.612 Y81.457 E1.39563
G1 X130.9 Y81.744 E.01376
G1 X101.744 Y110.9 E1.39568
G1 X102.032 Y111.188 E.01379
M73 P4 R91
G1 X131.188 Y82.032 E1.39568
G1 X131.476 Y82.32 E.01379
G1 X102.32 Y111.476 E1.39568
G1 X102.608 Y111.764 E.01379
G1 X131.764 Y82.608 E1.39568
G1 X132.052 Y82.896 E.01379
G1 X102.896 Y112.052 E1.39568
G1 X103.184 Y112.34 E.01379
G1 X132.34 Y83.184 E1.39568
G1 X132.627 Y83.472 E.01376
G1 X103.472 Y112.627 E1.39563
G1 X103.759 Y112.915 E.01376
G1 X132.915 Y83.759 E1.39568
G1 X133.203 Y84.047 E.01379
G1 X104.047 Y113.203 E1.39568
G1 X104.335 Y113.491 E.01379
G1 X133.491 Y84.335 E1.39568
G1 X133.779 Y84.623 E.01379
G1 X104.623 Y113.779 E1.39568
G1 X104.911 Y114.067 E.01379
G1 X134.067 Y84.911 E1.39568
G1 X134.355 Y85.199 E.01379
G1 X105.199 Y114.355 E1.39568
G1 X105.487 Y114.642 E.01376
G1 X134.642 Y85.487 E1.39563
G1 X134.93 Y85.774 E.01376
G1 X105.774 Y114.93 E1.39568
G1 X106.062 Y115.218 E.01379
G1 X135.218 Y86.062 E1.39568
G1 X135.506 Y86.35 E.01379
G1 X106.35 Y115.506 E1.39568
G1 X106.638 Y115.794 E.01379
G1 X135.794 Y86.638 E1.39568
G1 X136.082 Y86.926 E.01379
G1 X106.926 Y116.082 E1.39568
G1 X107.214 Y116.369 E.01376
G1 X136.369 Y87.214 E1.39563
G1 X136.657 Y87.501 E.01376
G1 X107.501 Y116.657 E1.39568
G1 X107.789 Y116.945 E.01379
G1 X136.945 Y87.789 E1.39568
G1 X137.233 Y88.077 E.01379
G1 X108.077 Y117.233 E1.39568
G1 X108.365 Y117.521 E.01379
G1 X137.521 Y88.365 E1.39568
G1 X137.809 Y88.653 E.01379
G1 X108.653 Y117.809 E1.39568
G1 X108.941 Y118.097 E.01379
G1 X138.097 Y88.941 E1.39568
G1 X138.384 Y89.229 E.01376
G1 X109.229 Y118.384 E1.39563
G1 X109.516 Y118.672 E.01376
G1 X138.672 Y89.516 E1.39568
G1 X138.96 Y89.804 E.01379
G1 X109.804 Y118.96 E1.39568
G1 X110.092 Y119.248 E.01379
G1 X139.248 Y90.092 E1.39568
G1 X139.536 Y90.38 E.01379
G1 X110.38 Y119.536 E1.39568
G1 X110.668 Y119.824 E.01379
G1 X139.824 Y90.668 E1.39568
G1 X140.111 Y90.956 E.01376
G1 X110.956 Y120.111 E1.39563
G1 X111.243 Y120.399 E.01376
G1 X140.399 Y91.243 E1.39568
G1 X140.687 Y91.531 E.01379
G1 X111.531 Y120.687 E1.39568
G1 X111.819 Y120.975 E.01379
G1 X140.975 Y91.819 E1.39568
G1 X141.263 Y92.107 E.01379
G1 X112.107 Y121.263 E1.39568
G1 X112.395 Y121.551 E.01379
G1 X141.551 Y92.395 E1.39568
G1 X141.839 Y92.683 E.01379
G1 X112.683 Y121.839 E1.39568
G1 X112.971 Y122.126 E.01376
G1 X142.126 Y92.971 E1.39563
G1 X142.414 Y93.258 E.01376
G1 X113.258 Y122.414 E1.39568
G1 X113.546 Y122.702 E.01379
G1 X142.702 Y93.546 E1.39568
G1 X142.99 Y93.834 E.01379
G1 X113.834 Y122.99 E1.39568
G1 X114.122 Y123.278 E.01379
G1 X143.278 Y94.122 E1.39568
G1 X143.566 Y94.41 E.01379
G1 X114.41 Y123.566 E1.39568
G1 X114.698 Y123.854 E.01379
G1 X143.854 Y94.698 E1.39568
G1 X144.141 Y94.986 E.01376
G1 X114.985 Y124.141 E1.39566
G1 X115.273 Y124.429 E.01379
G1 X144.429 Y95.273 E1.39568
G1 X144.717 Y95.561 E.01379
G1 X115.561 Y124.717 E1.39568
G1 X115.849 Y125.005 E.01379
G1 X145.005 Y95.849 E1.39568
G1 X145.293 Y96.137 E.01379
G1 X116.137 Y125.293 E1.39568
G1 X116.425 Y125.581 E.01379
G1 X145.581 Y96.425 E1.39568
G1 X145.868 Y96.713 E.01376
G1 X116.713 Y125.868 E1.39563
G1 X117 Y126.156 E.01376
G1 X146.156 Y97 E1.39568
G1 X146.444 Y97.288 E.01379
G1 X117.288 Y126.444 E1.39568
G1 X117.576 Y126.732 E.01379
G1 X146.732 Y97.576 E1.39568
G1 X147.02 Y97.864 E.01379
G1 X117.864 Y127.02 E1.39568
G1 X118.152 Y127.308 E.01379
G1 X147.308 Y98.152 E1.39568
G1 X147.596 Y98.44 E.01379
G1 X118.44 Y127.596 E1.39568
G1 X118.728 Y127.883 E.01376
G1 X147.883 Y98.728 E1.39563
G1 X148.171 Y99.015 E.01376
G1 X119.015 Y128.171 E1.39568
G1 X119.303 Y128.459 E.01379
G1 X148.459 Y99.303 E1.39568
G1 X148.747 Y99.591 E.01379
G1 X119.591 Y128.747 E1.39568
G1 X119.879 Y129.035 E.01379
G1 X149.035 Y99.879 E1.39568
G1 X149.323 Y100.167 E.01379
G1 X120.167 Y129.323 E1.39568
G1 X120.455 Y129.61 E.01376
G1 X149.61 Y100.455 E1.39563
G1 X149.898 Y100.742 E.01376
G1 X120.742 Y129.898 E1.39568
G1 X121.03 Y130.186 E.01379
G1 X150.186 Y101.03 E1.39568
G1 X150.474 Y101.318 E.01379
G1 X121.318 Y130.474 E1.39568
G1 X121.606 Y130.762 E.01379
G1 X150.762 Y101.606 E1.39568
G1 X151.05 Y101.894 E.01379
G1 X121.894 Y131.05 E1.39568
G1 X122.182 Y131.338 E.01379
G1 X151.338 Y102.182 E1.39568
G1 X151.625 Y102.47 E.01376
G1 X122.47 Y131.625 E1.39563
G1 X122.757 Y131.913 E.01376
G1 X151.913 Y102.757 E1.39568
G1 X152.201 Y103.045 E.01379
G1 X123.045 Y132.201 E1.39568
G1 X123.333 Y132.489 E.01379
G1 X152.489 Y103.333 E1.39568
G1 X152.777 Y103.621 E.01379
G1 X123.621 Y132.777 E1.39568
G1 X123.909 Y133.065 E.01379
G1 X153.065 Y103.909 E1.39568
G1 X153.352 Y104.197 E.01376
G1 X124.197 Y133.352 E1.39563
G1 X124.242 Y133.471 E.00431
;WIDTH:0.41646
G1 X124.287 Y133.59 E.00395
;WIDTH:0.38292
G1 X124.216 Y133.571 E.00208
G1 X124.235 Y133.642 E.00208
G1 X124.276 Y133.631 E.0012
;WIDTH:0.449999
G1 X124.667 Y133.458 E.01447
G1 X153.458 Y104.667 E1.37821
